X: 1
P: Duncan on the Plainstone
R: reel
C: from Matt Petrie, chords by T. Traub 11-29-2005
M: 4/4
L: 1/8
K: D
|: G|"D"FD D/D/D FGAB|"C"=cBcG E=CEG|"D"FD D/D/D FGA^c|"A"dABG "D"FD D :|
g|"D"fagb adfd|"G"Bedf "A"eAce|"D"fagb "Bm"adfd|"A"Bdce "D"fddg|
"D"fagb adfd|"G"Bedf "A"eAce|"D"fedc "G"BAGF|"A"EDCB, A,GFE |]

